X: 28194
T: Mrs. Angus Macdonald Of Tiree
R: jig
M: 6/8
K: Adorian
dAA AGE|GEE D3|A3 c3|cdd d3|
dAA AGE|GEE DD/E/G|c2c BGG|A3 A3:|
|:ccc BGG|AAA GEE|A3 c3|cdd d3|
[1 ccc BGG|AAA GEE|ccc BGG|A3 A3:|
[2 dAA AGE|GEE DD/E/G|ccc BGG|A3 A3||
|:AAA DDD|EDD C3|A3 c3|cdd d3|
AAA DDD|EDD CD/E/G|1 c2c BGG|A3 A3:|2 c2c BAG|A3 A3||
|:c2 A BGG|AGE G3|A3 c3|cdd d3|
[1 c2 A BGG|AGE DEG|ccc BGG|A3 A3:|
[2 AAA DDD|EDD CD/E/G|c2c BAG|A3 A3||

